X: 26700
T: Mike Flanagan's
R: reel
M: 4/4
K: Edorian
BE (3EEE E2ed|BE (3EEE FDFA|BE (3EEE Bcdf|1 edBA FEFA:|2 edBA FE (3DEF||
G2 dG eGdG|~G2 dB AF (3DEF|G2 dG eGdG|efdB AF (3DEF|
G2 dG eGdG|~G2 dB AFDF|EFGA Bcdf|edBA FEFA||

